rsvg-gcodifier/svg/flower1_lines.svg

<svg xmlns="http://www.w3.org/2000/svg" version="1.1" xmlns:xlink="http://www.w3.org/1999/xlink" preserveAspectRatio="none" x="0px" y="0px" width="550px" height="1000px" viewBox="0 0 550 1000">
<defs>
<path id="Layer0_0_1_STROKES" stroke="#000000" stroke-width="1" stroke-linejoin="round" stroke-linecap="round" fill="none" d="
M 258.5 183.8
Q 337.3 89.85 362.7 211.8 384.1 210.9 399.15 213.6 412.65 216 421 221.6 430.5 227.6 433.3 237.75 438.5 256.85 419.45 289.85 413.75 299.6 405.95 310.8 470.3 410.75 355.45 406.1 307.8 521.9 249.4 426.1 144 481.55 167.55 355.7 57.95 298.2 171.75 247.8 153.4 118.25 258.5 183.8 Z
M 159.8 243.6
Q 123.35 73.7 257.95 172.65 345.5 30.45 368.65 198.8 391.55 195 403.05 193.85 414.5 192.75 440.55 201.6 466.4 210.3 460.25 242.9 453.85 275.25 438.85 292.65 423.6 309.95 424.75 309.4 517.3 437.35 359.6 415.5 315.25 575.5 245.2 437.85 111.75 525.45 155.9 358.95 109.7 352.65 94.7 336.45 79.65 320.15 80.6 303.45 81.3 286.7 90.05 277.3 98.55 267.6 111.55 258.05 124.5 248.25 159.8 243.6 Z
M 300.35 400.15
L 296.65 384.1 277.95 398.5 281 407.6
Q 281.95 407.6 283.05 407.6 324.1 407.6 353.1 378.5 382.2 349.45 382.2 308.45 382.2 273.55 361.3 247.55 358.05 242.25 354.05 237.4
L 353.1 238.25
Q 324.1 209.2 283.05 209.2 281.5 209.2 279.9 209.4
L 283.8 222.25 296.65 216.65
M 327.35 273.2
L 336.55 296.45 358.7 285 349.2 267.05 327.35 273.2 312.35 234.3 290.6 245.3 301.3 281.1 327.35 273.2 Z
M 341.3 248.9
L 349.2 267.05 364.9 262.5
M 371.05 278.7
L 358.7 285 366.9 300.65 377.3 293.55
M 373.55 313.4
L 366.9 300.65 344.25 316.45 353.6 340.55 371.05 327.05
M 330.15 377.85
L 325.5 362.05 296.65 384.1 289.6 354.3 268.2 369 277.95 398.5 270.6 403.9
M 359.9 356.8
L 353.6 340.55 325.5 362.05 317.5 334.95 289.6 354.3 281.5 320.55 255.7 331.7 268.2 369 244.75 385.3 250.8 397.75
M 309.4 308.25
L 317.5 334.95 344.25 316.45 336.55 296.45 309.4 308.25 301.3 281.1 274.05 289.5 281.5 320.55 309.4 308.25 Z
M 307.8 222.9
L 312.35 234.3 328.95 224.1
M 283.8 222.25
L 260.55 232.25 266.4 257.4 290.6 245.3 283.8 222.25 Z
M 279.9 209.4
Q 267.05 209.65 255.25 212.95
L 260.55 232.25 227.55 246.6 236.2 272.75 266.4 257.4 274.05 289.5 244.75 298.3 255.7 331.7 225.05 345 244.75 385.3 232.2 394.05
Q 254.05 407.15 281 407.6
L 281.75 410.1
M 278.05 202.95
L 279.9 209.4
M 253.3 205.5
L 255.25 212.95
Q 237.1 217.85 222.15 229.95
L 227.55 246.6 204.95 256.35
M 222.15 229.95
Q 217.3 233.65 212.85 238.25 183.8 267.35 183.8 308.45 183.8 337.55 198.5 360.8 202.25 365.45 206.6 369.85
L 205.7 370.75
Q 208.95 374.6 212.85 378.5 221.95 387.6 232.2 394.05
L 228.45 396.45
M 195 313.4
L 207.75 309.65 198.9 291.55 190.05 296
M 196.2 286.15
L 198.9 291.55 236.2 272.75 244.75 298.3 207.75 309.65 225.05 345 203.65 354.3
M 260.3 474.3
Q 220.45 687.05 224.3 928.8
L 207.25 928.1
Q 206.65 666.7 252.95 469.95
L 260.3 474.3 Z
M 122.15 536.05
L 123.45 543.2
M 132 530.1
Q 129.2 526.3 127 523.05
M 121.6 514.95
Q 117.95 509 116.75 505.2
L 120.75 528.15
M 116.75 505.2
L 116 501.35
M 132.3 572.8
Q 134.05 577.55 136 582.2
M 125.4 551.6
Q 127.25 558.3 129.5 564.9
M 156.5 560.25
Q 152.75 555.85 149.4 551.9
M 144 545.35
Q 140.75 541.35 137.95 537.75
M 107.2 461.45
Q 110.8 492.25 162.15 544.45 208.1 596.9 207.65 685.9 119 630.2 109.15 522.95
L 107.2 461.45 Z
M 149.05 607.85
Q 151.9 612.8 155.1 617.65
M 315.6 690.2
Q 317.35 688.15 319.2 686.15 323.1 682.4 326.75 678.95
M 188.95 618.55
Q 186.6 611.5 183.8 604.7
M 193.95 637.1
Q 192.75 631.8 191.45 626.75
M 187.8 657.15
Q 192.75 662 198.15 666.75 197.95 663.85 197.7 661
M 196.75 652.9
Q 196.1 648.8 195.45 644.8
M 172 640.25
Q 176.95 646 182.35 651.6
M 296.25 716.1
Q 300.5 709.3 305.35 702.85
M 267.7 786.3
Q 269.15 779.35 271.1 772.55
M 273.65 764.25
Q 275.85 757.3 278.65 750.6
M 310.55 764.15
Q 307.1 767.9 303.5 771.6
M 296.5 778.4
Q 289.9 784.55 282.95 790.5
M 282.55 741.45
Q 285.7 734.3 289.45 727.6
M 139.75 590.4
Q 142.15 595.5 144.85 600.5
M 180.4 597
Q 177.2 590.4 173.6 584.15
M 159.55 624.15
Q 163.15 629.25 167.15 634.3
M 168.85 576.35
Q 165.5 571.2 161.8 566.4
M 383.1 611.15
L 381.8 615.7 377.35 633.5
M 348.25 657.5
Q 353.7 651.8 358.35 646.8
M 333.15 672.65
Q 338.3 667.6 342.95 662.95
M 375.4 641
L 370.85 658.8
M 368.6 666.95
Q 366.1 674.15 363.2 681.2
M 364.15 640.25
Q 378.35 624.1 381.8 615.7
M 350.75 707.8
Q 347.1 714.5 343.2 720.9
M 338.75 728.1
Q 335.1 733.55 331.3 738.85
M 360.25 688.25
Q 357.35 694.7 354.25 700.9
M 397.7 563.35
Q 390.45 600.55 320.5 659.45 257.45 719.15 250.4 827.6 368.4 767.7 390.1 638.05
L 397.7 563.35 Z
M 326.3 745.55
Q 321.65 751.5 316.7 757.3
M 276.8 795.5
Q 270.65 800.35 264.15 805.1 264.9 799.9 265.9 794.85"/>
</defs>

<g transform="matrix( 1, 0, 0, 1, 0,0) ">
<use xlink:href="#Layer0_0_1_STROKES"/>
</g>
</svg>

<?xml version="1.0" encoding="utf-8"?>
<!-- Generator: Adobe Illustrator 18.0.0, SVG Export Plug-In . SVG Version: 6.00 Build 0)  -->
<!DOCTYPE svg PUBLIC "-//W3C//DTD SVG 1.1//EN" "http://www.w3.org/Graphics/SVG/1.1/DTD/svg11.dtd">
<svg version="1.1" id="Layer_1" xmlns="http://www.w3.org/2000/svg" xmlns:xlink="http://www.w3.org/1999/xlink" x="0px" y="0px"
	 viewBox="80 107 381.9 822.3" enable-background="new 80 107 381.9 822.3" xml:space="preserve">
<g transform="matrix( 1, 0, 0, 1, 0,0) ">
	<g>
		<path id="Layer0_0_1_STROKES" fill="none" stroke="#000000" stroke-linecap="round" stroke-linejoin="round" d="M258.5,183.8
			c52.5-62.6,87.3-53.3,104.2,28c14.3-0.6,26.4,0,36.4,1.8c9,1.6,16.3,4.3,21.9,8c6.3,4,10.4,9.4,12.3,16.1
			c3.5,12.7-1.1,30.1-13.8,52.1c-3.8,6.5-8.3,13.5-13.5,20.9c42.9,66.6,26.1,98.4-50.5,95.3c-31.8,77.2-67.1,83.9-106.1,20
			c-70.3,37-97.6,13.5-81.8-70.4c-73.1-38.3-71.7-74.3,4.2-107.9C159.5,161.4,188.4,140.1,258.5,183.8z M159.8,243.6
			c-24.3-113.3,8.4-136.9,98.2-71c58.4-94.8,95.3-86.1,110.7,26.2c15.3-2.5,26.7-4.2,34.4-4.9c7.6-0.7,20.1,1.8,37.5,7.8
			c17.2,5.8,23.8,19.6,19.7,41.3c-4.3,21.6-11.4,38.2-21.4,49.8c-10.2,11.5-14.9,17.1-14.1,16.8c61.7,85.3,40,120.7-65.1,106.1
			c-29.6,106.7-67.7,114.1-114.4,22.4c-89,58.4-118.7,32.1-89.3-78.9c-30.8-4.2-51.2-11.7-61.2-22.5c-10-10.9-14.7-21.9-14.1-33
			c0.5-11.2,3.6-19.9,9.5-26.2c5.7-6.5,12.8-12.9,21.5-19.2C120.2,251.5,136.3,246.7,159.8,243.6z M300.4,400.1l-3.7-16L278,398.5
			l3,9.1c0.6,0,1.3,0,2,0c27.4,0,50.7-9.7,70.1-29.1c19.4-19.4,29.1-42.7,29.1-70c0-23.3-7-43.6-20.9-60.9
			c-2.2-3.5-4.6-6.9-7.2-10.2l-0.9,0.9c-19.3-19.4-42.7-29.1-70.1-29.1c-1,0-2.1,0.1-3.1,0.2l3.9,12.9l12.9-5.6 M327.4,273.2
			l9.2,23.2l22.2-11.5l-9.5-18L327.4,273.2l-15-38.9l-21.8,11l10.7,35.8L327.4,273.2z M341.3,248.9l7.9,18.1l15.7-4.5 M371,278.7
			l-12.3,6.3l8.2,15.6l10.4-7.1 M373.5,313.4l-6.6-12.8l-22.6,15.8l9.4,24.1L371,327 M330.1,377.9l-4.6-15.8l-28.9,22.1l-7-29.8
			L268.2,369l9.8,29.5l-7.4,5.4 M359.9,356.8l-6.3-16.2L325.5,362l-8-27.1l-27.9,19.3l-8.1-33.8l-25.8,11.2l12.5,37.3l-23.5,16.3
			l6.1,12.5 M309.4,308.2l8.1,26.7l26.8-18.5l-7.7-20L309.4,308.2l-8.1-27.1l-27.2,8.4l7.5,31L309.4,308.2z M307.8,222.9l4.6,11.4
			l16.6-10.2 M283.8,222.2l-23.2,10l5.9,25.1l24.2-12.1L283.8,222.2z M279.9,209.4c-8.6,0.2-16.8,1.4-24.6,3.6l5.3,19.3l-33,14.4
			l8.6,26.1l30.2-15.4l7.6,32.1l-29.3,8.8l10.9,33.4L225.1,345l19.7,40.3l-12.6,8.8c14.6,8.7,30.8,13.3,48.8,13.6l0.8,2.5
			 M278,202.9l1.9,6.4 M253.3,205.5l1.9,7.4c-12.1,3.3-23.1,8.9-33.1,17l5.4,16.7l-22.6,9.8 M222.1,229.9c-3.2,2.5-6.3,5.2-9.3,8.3
			c-19.4,19.4-29.1,42.8-29.1,70.2c0,19.4,4.9,36.8,14.7,52.3c2.5,3.1,5.2,6.1,8.1,9.1l-0.9,0.9c2.2,2.6,4.6,5.1,7.2,7.8
			c6.1,6.1,12.5,11.2,19.3,15.5l-3.8,2.4 M195,313.4l12.8-3.8l-8.9-18.1l-8.8,4.5 M196.2,286.1l2.7,5.4l37.3-18.8l8.6,25.5l-37,11.4
			l17.3,35.4l-21.4,9.3 M260.3,474.3c-26.6,141.8-38.6,293.3-36,454.5l-17.1-0.7c-0.4-174.3,14.8-327,45.7-458.1L260.3,474.3z
			 M122.2,536l1.3,7.2 M132,530.1c-1.9-2.5-3.5-4.9-5-7 M121.6,515c-2.4-4-4.1-7.2-4.8-9.8l4,23 M116.8,505.2l-0.8-3.9 M132.3,572.8
			c1.2,3.2,2.4,6.3,3.7,9.4 M125.4,551.6c1.2,4.5,2.6,8.9,4.1,13.3 M156.5,560.2c-2.5-2.9-4.9-5.7-7.1-8.3 M144,545.3
			c-2.2-2.7-4.2-5.2-6.1-7.6 M107.2,461.5c2.4,20.5,20.7,48.2,54.9,83c30.6,35,45.8,82.1,45.5,141.5c-59.1-37.1-91.9-91.5-98.5-163
			L107.2,461.5z M149.1,607.8c1.9,3.3,3.9,6.6,6.1,9.8 M315.6,690.2c1.2-1.4,2.4-2.7,3.6-4c2.6-2.5,5.1-4.9,7.5-7.2 M188.9,618.5
			c-1.6-4.7-3.3-9.3-5.1-13.8 M193.9,637.1c-0.8-3.5-1.6-7-2.5-10.3 M187.8,657.2c3.3,3.2,6.8,6.4,10.3,9.6
			c-0.1-1.9-0.3-3.9-0.4-5.8 M196.8,652.9c-0.4-2.7-0.9-5.4-1.3-8.1 M172,640.2c3.3,3.8,6.8,7.6,10.4,11.3 M296.2,716.1
			c2.8-4.5,5.9-9,9.1-13.2 M267.7,786.3c1-4.6,2.1-9.2,3.4-13.8 M273.6,764.2c1.5-4.6,3.1-9.2,5-13.7 M310.5,764.2
			c-2.3,2.5-4.6,5-7,7.4 M296.5,778.4c-4.4,4.1-8.9,8.1-13.5,12.1 M282.5,741.5c2.1-4.8,4.4-9.4,6.9-13.9 M139.8,590.4
			c1.6,3.4,3.3,6.8,5.1,10.1 M180.4,597c-2.1-4.4-4.4-8.7-6.8-12.8 M159.6,624.2c2.4,3.4,4.9,6.8,7.6,10.1 M168.9,576.3
			c-2.2-3.4-4.6-6.7-7.1-9.9 M383.1,611.2l-1.3,4.5l-4.4,17.8 M348.2,657.5c3.6-3.8,7-7.4,10.1-10.7 M333.1,672.7
			c3.4-3.4,6.7-6.6,9.8-9.7 M375.4,641l-4.5,17.8 M368.6,667c-1.7,4.8-3.5,9.5-5.4,14.2 M364.1,640.2c9.5-10.8,15.4-19,17.6-24.5
			 M350.8,707.8c-2.4,4.5-4.9,8.8-7.5,13.1 M338.8,728.1c-2.4,3.6-4.9,7.2-7.5,10.8 M360.2,688.2c-1.9,4.3-3.9,8.5-6,12.7
			 M397.7,563.3c-4.8,24.8-30.6,56.8-77.2,96.1c-42,39.8-65.4,95.8-70.1,168.1c78.7-39.9,125.2-103.1,139.7-189.5L397.7,563.3z
			 M326.3,745.5c-3.1,4-6.3,7.9-9.6,11.8 M276.8,795.5c-4.1,3.2-8.3,6.4-12.6,9.6c0.5-3.5,1.1-6.9,1.8-10.2"/>
	</g>
</g>
</svg>
